X: 15702
T: Golden Jubilee
R: barndance
M: 4/4
K: Gmajor
|:A|"D" F A/A/ B A|F A2 d/d/|f f e d|"G" B3 d/e/|$
"D" f f e f|d B A A|"E" B e e f|"A7" e3 A/A/|$
"D" F A/A/ B A|F A2 d/e/|f f e d|"G" B3 d/e/|$
"D" f f e f|"G" d B"D" A A|"G" B d d"A7" e|"D" d3:|

